src/assets/outline/TicketDiscount.svg

<svg width="24" height="24" viewBox="0 0 24 24"  xmlns="http://www.w3.org/2000/svg">
<path d="M17 20.75H7C2.59 20.75 1.25 19.41 1.25 15V14.5C1.25 14.09 1.59 13.75 2 13.75C2.96 13.75 3.75 12.96 3.75 12C3.75 11.04 2.96 10.25 2 10.25C1.59 10.25 1.25 9.91 1.25 9.5V9C1.25 4.59 2.59 3.25 7 3.25H17C21.41 3.25 22.75 4.59 22.75 9V10C22.75 10.41 22.41 10.75 22 10.75C21.04 10.75 20.25 11.54 20.25 12.5C20.25 13.46 21.04 14.25 22 14.25C22.41 14.25 22.75 14.59 22.75 15C22.75 19.41 21.41 20.75 17 20.75ZM2.75 15.16C2.77 18.6 3.48 19.25 7 19.25H17C20.34 19.25 21.15 18.66 21.24 15.66C19.81 15.32 18.75 14.03 18.75 12.5C18.75 10.97 19.82 9.68 21.25 9.34V9C21.25 5.43 20.57 4.75 17 4.75H7C3.48 4.75 2.77 5.4 2.75 8.84C4.18 9.18 5.25 10.47 5.25 12C5.25 13.53 4.18 14.82 2.75 15.16Z" />
<path d="M15.0002 15.88C14.4402 15.88 13.9902 15.43 13.9902 14.88C13.9902 14.33 14.4402 13.88 14.9902 13.88C15.5402 13.88 15.9902 14.33 15.9902 14.88C15.9902 15.43 15.5602 15.88 15.0002 15.88Z" />
<path d="M9.00023 10.88C8.44023 10.88 7.99023 10.43 7.99023 9.88C7.99023 9.33 8.44023 8.88 8.99023 8.88C9.54023 8.88 9.99023 9.33 9.99023 9.88C9.99023 10.43 9.56023 10.88 9.00023 10.88Z" />
<path d="M8.62982 16.43C8.43982 16.43 8.24982 16.36 8.09982 16.21C7.80982 15.92 7.80982 15.44 8.09982 15.15L14.8298 8.42001C15.1198 8.13001 15.5998 8.13001 15.8898 8.42001C16.1798 8.71001 16.1798 9.19001 15.8898 9.48001L9.15982 16.21C9.01982 16.36 8.81982 16.43 8.62982 16.43Z" />
</svg>

<?xml version="1.0" encoding="UTF-8"?>
<svg width="24" height="24" viewBox="0 0 24 24" xmlns="http://www.w3.org/2000/svg">
 <path d="m17 20.75h-10c-4.41 0-5.75-1.34-5.75-5.75v-0.5c0-0.41 0.34-0.75 0.75-0.75 0.96 0 1.75-0.79 1.75-1.75s-0.79-1.75-1.75-1.75c-0.41 0-0.75-0.34-0.75-0.75v-0.5c0-4.41 1.34-5.75 5.75-5.75h10c4.41 0 5.75 1.34 5.75 5.75v1c0 0.41-0.34 0.75-0.75 0.75-0.96 0-1.75 0.79-1.75 1.75s0.79 1.75 1.75 1.75c0.41 0 0.75 0.34 0.75 0.75 0 4.41-1.34 5.75-5.75 5.75zm-14.25-5.59c0.02 3.44 0.73 4.09 4.25 4.09h10c3.34 0 4.15-0.59 4.24-3.59-1.43-0.34-2.49-1.63-2.49-3.16s1.07-2.82 2.5-3.16v-0.34c0-3.57-0.68-4.25-4.25-4.25h-10c-3.52 0-4.23 0.65-4.25 4.09 1.43 0.34 2.5 1.63 2.5 3.16s-1.07 2.82-2.5 3.16z"/>
 <path d="m15 15.88c-0.56 0-1.01-0.45-1.01-1s0.45-1 1-1 1 0.45 1 1-0.43 1-0.99 1z"/>
 <path d="m9.0002 10.88c-0.56 0-1.01-0.45-1.01-1s0.45-1 1-1 1 0.45 1 1-0.43 1-0.99 1z"/>
 <path d="m8.6298 16.43c-0.19 0-0.38-0.07-0.53-0.22-0.29-0.29-0.29-0.77 0-1.06l6.73-6.73c0.29-0.29 0.77-0.29 1.06 0s0.29 0.77 0 1.06l-6.73 6.73c-0.14 0.15-0.34 0.22-0.53 0.22z"/>
</svg>
